tools/download-figma-icons/icons/solid/care.svg

<svg width="24" height="24" viewBox="0 0 24 24" fill="none" xmlns="http://www.w3.org/2000/svg">
<path fill-rule="evenodd" clip-rule="evenodd" d="M17.8885 0C18.9235 0 19.8963 0.423 20.6268 1.19025C22.1035 2.742 22.1133 5.25675 20.6493 6.795L15.9175 11.7675C15.7758 11.916 15.58 12 15.3738 12C15.169 12 14.9725 11.916 14.8308 11.7675L10.0908 6.79125C8.62605 5.256 8.63655 2.7435 10.1133 1.19025C10.8438 0.423 11.8165 0 12.8523 0C13.7928 0 14.677 0.3495 15.37 0.99C16.0623 0.35025 16.9473 0 17.8878 0H17.8885ZM12.3369 23.7335L22.8526 18.611C23.8651 18.116 24.2851 16.8935 23.7901 15.881C23.2951 14.8685 22.0726 14.441 21.0594 14.936L19.0351 15.926L19.0365 15.9457C19.0435 16.0432 19.0501 16.1351 19.0501 16.2335C19.0501 17.891 17.7076 19.2335 16.0501 19.2335H9.10512C8.69262 19.2335 8.35512 18.896 8.35512 18.4835C8.35512 18.071 8.69262 17.7335 9.10512 17.7335H16.0501C16.8826 17.7335 17.5501 17.0585 17.5501 16.2335C17.5501 15.5435 17.0851 14.9585 16.4476 14.786C16.3746 14.7643 16.2891 14.7565 16.2091 14.7493L16.2001 14.7485H16.1701C16.1326 14.7335 16.0951 14.7335 16.0501 14.7335H11.4751C11.0176 13.886 9.78012 12.356 6.71187 12.356H0.750122C0.336872 12.356 0.00012207 12.6935 0.00012207 13.106V19.5642C0.00012207 19.8935 0.210122 20.186 0.524372 20.2835L11.7744 23.7785C11.7826 23.786 11.7976 23.786 11.8126 23.786C11.8719 23.8085 11.9319 23.816 12.0001 23.816C12.1126 23.816 12.2251 23.7935 12.3301 23.741L12.3369 23.7335Z" fill="black"/>
</svg>

<svg width="24" height="24" viewBox="0 0 24 24" fill="none" xmlns="http://www.w3.org/2000/svg"><path fill-rule="evenodd" clip-rule="evenodd" d="M17.889 0c1.035 0 2.007.423 2.738 1.19 1.477 1.552 1.486 4.067.022 5.605l-4.732 4.973a.75.75 0 0 1-1.086 0L10.09 6.79c-1.465-1.535-1.454-4.048.022-5.6A3.757 3.757 0 0 1 12.853 0c.94 0 1.824.35 2.517.99A3.684 3.684 0 0 1 17.888 0Zm-5.552 23.733 10.516-5.122a2.045 2.045 0 0 0-1.793-3.675l-2.025.99.002.02a3 3 0 0 1-2.986 3.288H9.104a.752.752 0 0 1-.75-.75c0-.413.338-.75.75-.75h6.945a1.5 1.5 0 0 0 .398-2.948 1.263 1.263 0 0 0-.239-.037h-.039c-.037-.016-.075-.016-.12-.016h-4.575c-.457-.847-1.695-2.377-4.763-2.377H.75a.752.752 0 0 0-.75.75v6.458c0 .33.21.622.524.72l11.25 3.495c.009.007.024.007.039.007a.52.52 0 0 0 .187.03.732.732 0 0 0 .33-.075l.007-.008Z" fill="currentColor"/></svg>
